X: 67
T:Rigadoon. JaW.067
M:6/4
L:1/4
Q:1/4=120
S:James Winder Ms, Lancashire, 1835-41
R:Rigadoon
O:England
A:Wyresdale,Lancashire
H:1/4
Z:vmp.Chris Partington, Aug 2004
K:C
G|c>Bc (de)c|d3 G2c/d/|"qu's"(ec)A (fd)c|d3-d2:||:G/4A/4B/|c>BA GcG|!
(Ac)A F2A|(df)d (Ad)A|BdB G2c/d/|(ec)d (Gc)B|c3-c2:|]
